X:6746
T:Hanter dro
C:Dour, Tablatures
M:6/8
L:1/8
K:C
ee/f/ ed c2|ed/c/ Bd cB|\
ee/f/ ed c2|ed/c/ BG E2:|
|:AA/B/ cd e2|de/f/ af e2|\
cd/e/ fc d2|Bc/d/ cB A2:|
